icons/mobile/24/svg/camera-24.svg

<svg width="24" height="24" viewBox="0 0 24 24" fill="none" xmlns="http://www.w3.org/2000/svg">
<path fill-rule="evenodd" clip-rule="evenodd" d="M9.4834 4.99902C11.1243 4.99904 12.6331 5.11196 13.9863 5.28418C15.3949 5.46345 16.5115 6.48321 16.8535 7.80762L17.2822 7.37891C19.0265 5.62915 21.9999 6.87612 22 9.33594V15.665C22 18.1259 19.0258 19.3702 17.2822 17.6211L16.8535 17.1914C16.516 18.4982 15.4246 19.5311 14.0234 19.7109C12.3351 19.9272 10.8055 20 9.48242 20C7.84105 20 6.33191 19.8859 4.97949 19.7148C3.28029 19.4986 2 18.0602 2 16.3379V8.66016C2 6.97152 3.24574 5.5058 4.94141 5.28906C6.62996 5.07274 8.16026 4.99902 9.4834 4.99902ZM9.4834 6.74902C8.38182 6.74902 7.13004 6.80206 5.75879 6.95312L5.16406 7.02441C4.36625 7.12614 3.75 7.82714 3.75 8.66016V16.3379C3.75 17.1731 4.3681 17.8722 5.19824 17.9785C6.48575 18.1414 7.9219 18.25 9.48242 18.25C10.7412 18.25 12.1955 18.1812 13.8008 17.9756L13.9482 17.9492C14.6742 17.7847 15.2148 17.1193 15.2148 16.3389V15.1875C15.2148 14.8334 15.4287 14.5142 15.7559 14.3789C16.083 14.2436 16.4589 14.3187 16.709 14.5693L18.5215 16.3848C19.156 17.0213 20.25 16.576 20.25 15.665V9.33594C20.2499 8.42401 19.1553 7.97849 18.5215 8.61426L16.709 10.4307C16.459 10.6812 16.083 10.7572 15.7559 10.6221C15.4288 10.4868 15.215 10.1674 15.2148 9.81348V8.66113C15.2148 7.82553 14.5963 7.12631 13.7656 7.02051C12.4791 6.85677 11.0441 6.74904 9.4834 6.74902Z" fill="black"/>
</svg>

<!-- This Source Code Form is subject to the terms of the Mozilla Public
   - License, v. 2.0. If a copy of the MPL was not distributed with this
   - file, You can obtain one at http://mozilla.org/MPL/2.0/. -->
<svg xmlns="http://www.w3.org/2000/svg" width="24" height="24" fill="none" viewBox="0 0 24 24">
    <path fill="#000" fill-rule="evenodd" d="M9.483 4.999c1.641 0 3.15.113 4.503.285a3.4 3.4 0 0 1 2.867 2.524l.43-.43C19.025 5.63 22 6.877 22 9.337v6.329c0 2.46-2.974 3.705-4.718 1.956l-.428-.43c-.338 1.307-1.43 2.34-2.83 2.52a35.7 35.7 0 0 1-9.045.004A3.403 3.403 0 0 1 2 16.338V8.66c0-1.688 1.246-3.154 2.941-3.37a36 36 0 0 1 4.542-.291m0 1.75a34 34 0 0 0-3.724.204l-.595.071c-.798.102-1.414.803-1.414 1.636v7.678c0 .835.618 1.534 1.448 1.64a34 34 0 0 0 8.603-.002l.147-.027a1.65 1.65 0 0 0 1.267-1.61v-1.151a.875.875 0 0 1 1.494-.619l1.813 1.816c.634.636 1.728.191 1.728-.72v-6.33c0-.911-1.095-1.357-1.729-.72L16.71 10.43a.875.875 0 0 1-1.494-.618V8.661c0-.835-.619-1.535-1.45-1.64a34 34 0 0 0-4.282-.272" clip-rule="evenodd" />
</svg>
